Newaita-dark/.LP/64/media-skip-forward.svg

<?xml version="1.0" encoding="UTF-8"?>
<svg xmlns="http://www.w3.org/2000/svg" xmlns:xlink="http://www.w3.org/1999/xlink" width="64pt" height="64pt" viewBox="0 0 64 64" version="1.1">
<g id="surface1">
<path style=" stroke:none;fill-rule:nonzero;fill:rgb(25.882354%,25.882354%,25.882354%);fill-opacity:1;" d="M 31.753906 61.359375 C 15.628906 61.359375 2.644531 48.378906 2.644531 32.253906 C 2.644531 16.128906 15.628906 3.144531 31.753906 3.144531 C 47.878906 3.144531 60.859375 16.128906 60.859375 32.253906 C 60.859375 48.378906 47.878906 61.359375 31.753906 61.359375 Z M 31.753906 56.066406 C 44.945312 56.066406 55.566406 45.445312 55.566406 32.253906 C 55.566406 19.058594 44.945312 8.4375 31.753906 8.4375 C 18.558594 8.4375 7.9375 19.058594 7.9375 32.253906 C 7.9375 45.445312 18.558594 56.066406 31.753906 56.066406 Z M 31.753906 56.066406 "/>
<path style=" stroke:none;fill-rule:evenodd;fill:rgb(25.882354%,64.705884%,96.078432%);fill-opacity:1;" d="M 21.167969 19.023438 C 19.734375 19.058594 18.589844 20.234375 18.589844 21.667969 L 18.589844 42.835938 C 18.589844 45.054688 21.15625 46.289062 22.890625 44.902344 L 36.121094 34.320312 C 37.441406 33.261719 37.441406 31.246094 36.121094 30.1875 L 22.890625 19.601562 C 22.402344 19.210938 21.792969 19.007812 21.167969 19.023438 Z M 21.167969 19.023438 "/>
<path style=" stroke:none;fill-rule:nonzero;fill:rgb(25.882354%,64.705884%,96.078432%);fill-opacity:1;" d="M 41.207031 19.023438 L 40.824219 19.023438 C 39.46875 19.023438 38.367188 20.207031 38.367188 21.667969 L 38.367188 42.835938 C 38.367188 44.296875 39.46875 45.484375 40.824219 45.484375 L 41.207031 45.484375 C 42.5625 45.484375 43.660156 44.296875 43.660156 42.835938 L 43.660156 21.667969 C 43.660156 20.207031 42.5625 19.023438 41.207031 19.023438 Z M 41.207031 19.023438 "/>
</g>
</svg>

<svg xmlns="http://www.w3.org/2000/svg" width="64pt" height="64pt" viewBox="0 0 64 64"><path d="M31.754 61.36c-16.125 0-29.11-12.981-29.11-29.106s12.985-29.11 29.11-29.11 29.105 12.985 29.105 29.11a29.041 29.041 0 0 1-29.105 29.105zm0-5.294a23.761 23.761 0 0 0 23.812-23.812A23.762 23.762 0 0 0 31.754 8.438 23.763 23.763 0 0 0 7.937 32.254a23.762 23.762 0 0 0 23.817 23.812zm0 0" fill="#424242"/><path d="M21.168 19.023a2.646 2.646 0 0 0-2.578 2.645v21.168c0 2.219 2.566 3.453 4.3 2.066L36.122 34.32a2.651 2.651 0 0 0 0-4.133l-13.23-10.585a2.648 2.648 0 0 0-1.723-.579zm0 0" fill-rule="evenodd" fill="#42a5f5"/><path d="M41.207 19.023h-.383c-1.355 0-2.457 1.184-2.457 2.645v21.168c0 1.46 1.102 2.648 2.457 2.648h.383c1.355 0 2.453-1.187 2.453-2.648V21.668c0-1.461-1.097-2.645-2.453-2.645zm0 0" fill="#42a5f5"/></svg>
